usr/share/icons/biglinux-icons-material/24/actions/prevuntranslated.svg

<svg xmlns="http://www.w3.org/2000/svg" viewBox="0 0 24 24">
  <defs id="defs3051">
    <style type="text/css" id="current-color-scheme">
      .ColorScheme-Text {
        color:#363636;
      }
      </style>
  </defs><g transform="translate(1,1)">
 <path 
     style="fill:currentColor;fill-opacity:1;stroke:none" 
     d="M 16.292969 4 L 13 7.2929688 L 12.792969 7.5 L 13 7.7070312 L 16.292969 11 L 17 10.292969 L 14.707031 8 L 19 8 L 19 7 L 14.707031 7 L 17 4.7070312 L 16.292969 4 z M 5 15 L 5 16 L 5 17 L 16 17 L 16 16 L 16 15 L 15 15 L 15 16 L 6 16 L 6 15 L 5 15 z "
	 class="ColorScheme-Text"
     />
</g></svg>

<svg xmlns="http://www.w3.org/2000/svg" viewBox="0 0 24 24"><path d="M16.293 4 13 7.293l-.207.207.207.207L16.293 11l.707-.707L14.707 8H19V7h-4.293L17 4.707 16.293 4zM5 15v2h11v-2h-1v1H6v-1H5z" style="fill:currentColor;fill-opacity:1;stroke:none;color:#dedede" transform="translate(1 1)"/></svg>
